src/assets/img/Home/icons/CaseItem/psol.svg

<svg width="30" height="30" viewBox="0 0 30 30" fill="none" xmlns="http://www.w3.org/2000/svg">
<g id="Icon">
<g id="Subtract">
<path d="M13.0795 10.9328C13.3635 10.7072 13.7009 10.5431 14.0625 10.4406V13.9343C13.694 13.8297 13.3575 13.663 13.0795 13.4422C12.5873 13.0512 12.3969 12.5912 12.3969 12.1875C12.3969 11.7838 12.5873 11.3238 13.0795 10.9328Z" fill="#CAFF33"/>
<path d="M15.9375 19.577V16.0479C16.3716 16.1535 16.7672 16.3322 17.0892 16.5737C17.6223 16.9735 17.8125 17.4311 17.8125 17.8125C17.8125 18.1939 17.6223 18.6514 17.0892 19.0512C16.7672 19.2927 16.3716 19.4715 15.9375 19.577Z" fill="#CAFF33"/>
<path fill-rule="evenodd" clip-rule="evenodd" d="M15 2.8125C8.26903 2.8125 2.8125 8.26903 2.8125 15C2.8125 21.731 8.26903 27.1875 15 27.1875C21.731 27.1875 27.1875 21.731 27.1875 15C27.1875 8.26903 21.731 2.8125 15 2.8125ZM15.9375 7.5C15.9375 6.98223 15.5178 6.5625 15 6.5625C14.4822 6.5625 14.0625 6.98223 14.0625 7.5V8.51953C13.2789 8.65836 12.5317 8.97342 11.9132 9.46469C11.0228 10.1721 10.5219 11.1516 10.5219 12.1875C10.5219 13.2234 11.0228 14.2029 11.9132 14.9103C12.5413 15.4092 13.2908 15.7188 14.0625 15.8554V19.5769C13.6285 19.4714 13.233 19.2926 12.9111 19.0512L11.8125 18.2272C11.3983 17.9166 10.8107 18.0005 10.5 18.4147C10.1893 18.8289 10.2733 19.4165 10.6875 19.7272L11.7861 20.5512C12.4526 21.0511 13.2474 21.357 14.0625 21.4879V22.5C14.0625 23.0178 14.4822 23.4375 15 23.4375C15.5178 23.4375 15.9375 23.0178 15.9375 22.5V21.488C16.7527 21.357 17.5476 21.0511 18.2142 20.5512C19.1455 19.8527 19.6875 18.8706 19.6875 17.8125C19.6875 16.7543 19.1455 15.7723 18.2142 15.0737C17.5476 14.5738 16.7527 14.2679 15.9375 14.137V10.4407C16.299 10.5432 16.6362 10.7073 16.9201 10.9328L17.4388 11.3448C17.8442 11.6669 18.4339 11.5993 18.756 11.1939C19.078 10.7885 19.0105 10.1987 18.605 9.87668L18.0864 9.4647C17.4681 8.97349 16.721 8.65846 15.9375 8.51959V7.5Z" fill="#CAFF33"/>
</g>
</g>
</svg>

<svg xmlns="http://www.w3.org/2000/svg" width="30" height="30" fill="none"><g fill="#CAFF33"><path d="M13.08 10.933c.284-.226.62-.39.982-.492v3.493a2.815 2.815 0 0 1-.982-.492c-.493-.39-.683-.85-.683-1.255 0-.403.19-.863.682-1.254ZM15.938 19.577v-3.53c.434.107.83.285 1.151.527.533.4.724.857.724 1.238 0 .382-.19.84-.724 1.24-.322.24-.717.42-1.151.525Z"/><path fill-rule="evenodd" d="M15 2.813C8.269 2.813 2.812 8.268 2.812 15c0 6.731 5.457 12.188 12.188 12.188 6.731 0 12.188-5.457 12.188-12.188C27.188 8.269 21.73 2.812 15 2.812Zm.938 4.687a.937.937 0 1 0-1.876 0v1.02a4.796 4.796 0 0 0-2.149.945c-.89.707-1.391 1.687-1.391 2.723 0 1.035.5 2.015 1.391 2.722a4.791 4.791 0 0 0 2.15.945v3.722a3.168 3.168 0 0 1-1.152-.526l-1.098-.824a.938.938 0 0 0-1.126 1.5l1.1.824c.666.5 1.46.806 2.275.937V22.5a.937.937 0 1 0 1.876 0v-1.012c.815-.131 1.61-.437 2.276-.937.931-.698 1.474-1.68 1.474-2.738 0-1.059-.543-2.04-1.474-2.74-.666-.5-1.461-.805-2.276-.936v-3.696c.361.102.698.266.982.492l.519.412a.937.937 0 1 0 1.166-1.468l-.519-.412a4.795 4.795 0 0 0-2.148-.945V7.5Z" clip-rule="evenodd"/></g></svg>
